X:1
T:Swedish Twostep
N:Play order: A1, A2, B, A2
L:1/4
M:4/4
I:linebreak $
K:G
V:1 treble
V:1
P:Play A1 / A2 / B / A2
"G" B2 B/c/B/A/ | G B D B/c/ | d d e/d/B/c/ | d3 e/f/ |$
"C" g2 f g/f/ | "G" e d B G |1 "D"A d "A7"^c e | "D"d c !trill!B A :|2 "D" A G E D | "G" G2 G2 :|$
||"Em" B e e e/f/ | g e e e/f/ | g f e d | B2 d2 |$
"D" A d d d/e/ | f d d f/g/ | a g f e | d c B A ||
